src/assets/img/angular.svg

<svg width="56" height="60" viewBox="0 0 56 60" fill="hsl(292, 91%, 32%)" xmlns="http://www.w3.org/2000/svg">
<path d="M28.0001 0L55.9001 9.96L51.6461 46.89L28.0001 60L4.3541 46.89L0.100098 9.96L28.0001 0ZM28.0001 6.63L10.5581 45.78H17.0621L20.5691 37.02H35.3711L38.8811 45.78H45.3821L28.0001 6.63ZM33.0941 31.62H22.9061L28.0001 19.35L33.0941 31.62Z" fill="#930f50"/>
</svg>

<svg width="56" height="60" fill="hsl(292, 91%, 32%)" xmlns="http://www.w3.org/2000/svg"><path d="m28 0 27.9 9.96-4.254 36.93L28 60 4.354 46.89.1 9.96 28 0Zm0 6.63L10.558 45.78h6.504l3.507-8.76h14.802l3.51 8.76h6.501L28 6.63Zm5.094 24.99H22.906L28 19.35l5.094 12.27Z" fill="#930f50"/></svg>
